!!!COM: Palestrina, Giovanni Perluigi da
!!!OPR: Missa De beata virgine (1567)
!!!OMD: Credo
!!!OTL: Crucifixus
**kern	**kern	**kern
*Itenor	*Icalto	*Icant
!Tenor	!Altus	!Cantus
*clefGv2	*clefG2	*clefG2
*k[b-]	*k[b-]	*k[b-]
*?:X	*?:X	*?:X
*M4/2	*M4/2	*M4/2
=90	=90	=90
0r	1d	0r
.	1e	.
=91	=91	=91
1r	1.d	0r
1G	.	.
.	2B	.
=92	=92	=92
1A	2c	0r
.	2c	.
[1G	2.B	.
.	4c	.
=93	=93	=93
2G]	2d	1g
2E	1e	.
2F	.	1a
2F	2d	.
=94	=94	=94
2.E	0e	1.g
4F	.	.
2G	.	.
2A	.	2e
=95	=95	=95
4D	0r	2f
4E	.	.
4F	.	2f
4G	.	.
2.A	.	2e
.	.	2f
8G	.	.
8F	.	.
=96	=96	=96
4E	1e	1g
4D	.	.
2E	.	.
2D	1f	1a
2d	.	.
=97	=97	=97
2c	1e	2r
2A	.	2a
2.c	1e	2g
.	.	2e
4B	.	.
=98	=98	=98
2.A	2e	2.cc
.	2c	.
4G	.	4b
2F	2d	2a
2G	[2e	2g
=99	=99	=99
1B-	4e]	2.f
.	4d	.
.	1d	.
.	.	8e
.	.	8d
1A	.	1e
.	2c#	.
=100	=100	=100
1D	0d	4d
.	.	4e
.	.	4f
.	.	4g
2r	.	[1a
[2d	.	.
=101	=101	=101
2d]	1e	0a]
2c#	.	.
2d	1f	.
2A	.	.
=102	=102	=102
1c	1e	2r
.	.	1a
1B	1d	.
.	.	2g#
=103	=103	=103
4A	1c	2a
4B	.	.
4c	.	2e
4A	.	.
2B	2d	1g
2c	[2e	.
=104	=104	=104
1d	4e]	1f
.	4d	.
.	1d	.
1A	.	1e
.	2c#	.
=105	=105	=105
2r	1d	0d
2G	.	.
2G	2r	.
2F#	2d	.
=106	=106	=106
2G	2d	1r
2E	2e	.
2F#	2d	2r
2G	2B	2g
=107	=107	=107
1A	1c	2g
.	.	2f#
2G	2B	2g
[2A	[2c	2e
=108	=108	=108
4A]	4c]	2f#
4G	4d	.
2E	1e	2g
1F	.	1a
.	2d	.
=109	=109	=109
1E	0e	2.g
.	.	4a
2r	.	2b
[2A	.	2cc
=110	=110	=110
2A]	1r	1b
4G	.	.
4F	.	.
2G	1e	1r
2A	.	.
=111	=111	=111
4D	1f	1.a
4E	.	.
4F	.	.
4G	.	.
4A	1e	.
4B	.	.
[2c	.	4g
.	.	4f
=112	=112	=112
2c]	2e	2g
2A	2c	2a
2B-	2d	2f
2G	[2e	[2g
=113	=113	=113
1B-	4e]	4g]
.	4d	4f
.	1d	2d
1A	.	2e
.	2c#	2f#
=114	=114	=114
1G	1d	0g
2r	1B	.
[2E	.	.
=115	=115	=115
2E]	2c	0r
2F	1d	.
1G	.	.
.	2B	.
=116	=116	=116
2E	1c	2r
1F	.	1a
.	1d	.
[2G	.	[2b
=117	=117	=117
4G]	0e	2b]
4E	.	.
1A	.	2cc
.	.	2a
2G#	.	2b
=118	=118	=118
1A	1e	1cc
1D	1f	2dd
.	.	2a
=119	=119	=119
1r	1.e	2g
.	.	2g
1A	.	2.cc
.	2c	.
.	.	4a
=120	=120	=120
2G	2d	2b
2G	2d	2.g
2.c	1e	.
.	.	8f
.	.	8g
.	.	2a
4A	.	.
=121	=121	=121
2B	2d	0g
2.c	2.e	.
4B-	4d	.
2G	[2d	.
=122	=122	=122
1A	2d]	1e
.	2c#	.
1D	1d	1f
=123	=123	=123
2r	1B	2.g
1E	.	.
.	.	4g
.	1c	2g
[2F	.	[2a
=124	=124	=124
2F]	2d	2a]
1G	2d	1b-
.	2d	.
2F#	2d	2a
=125	=125	=125
2G	2d	2b-
2D	2d	4a
.	.	4g
2F	1d	2a
2G	.	2b
=126	=126	=126
2C	1e	2cc
2c	.	2cc
2G	2d	2b
2A	2c	2a
=127	=127	=127
2E	2B	2g
1A	1c	2f
.	.	[1e
2G#	2B	.
=128	=128	=128
2.A	1c	1e]
4G	.	.
1F	1d	1a
=129	=129	=129
1E	[0e	2.g
.	.	4a
2r	.	2b
[2A	.	2cc
=130	=130	=130
2A]	1e]	1b
1G	.	.
.	1r	1a
2F	.	.
=131	=131	=131
2G	1e	1r
2A	.	.
4D	1f	2r
4E	.	.
4F	.	[2a
4G	.	.
=132	=132	=132
4A	1e	2a]
4B	.	.
2c	.	1g
2B	2d	.
2A	2c	2f
=133	=133	=133
2B	2d	2g
2.c	2.e	2a
.	.	2.g
4B-	4d	.
2G	[2d	.
.	.	4f
=134	=134	=134
1A	2d]	4e
.	.	4d
.	2c#	2e
1D	1d	4f
.	.	4g
.	.	[2a
=135	=135	=135
1E	1B	2a]
.	.	2g#
2r	1c	1a
2A	.	.
=136	=136	=136
2F	1d	0r
2G	.	.
4D	2d	.
4E	.	.
4F	2d	.
4G	.	.
=137	=137	=137
4A	1c	1a
4B	.	.
4c	.	.
4A	.	.
2B-	2d	2f
2G	[2e	2g
=138	=138	=138
1B-	4e]	4d
.	4d	4e
.	1d	4f
.	.	4g
1A	.	4a
.	.	4b
.	2c	4cc
.	.	4a
=139	=139	=139
1.G	0d	2b-
.	.	2g
.	.	2b-
2D	.	[2a
=140	=140	=140
1E	1B	2a]
.	.	2g#
2r	1c	[1a
2A	.	.
=141	=141	=141
2F	1d	2a]
2G	.	2g
4D	2d	1f
4E	.	.
4F	2d	.
4G	.	.
=142	=142	=142
4A	1c	2e
4B	.	.
4c	.	2a
4A	.	.
2B-	2d	2f
2G	[2e	[2g
=143	=143	=143
2B-	4e]	4g]
.	4d	4f
2B-	1d	2d
1A	.	1e
.	2c#	.
=144	=144	=144
0D	0d	0d
*-	*-	*-
!!!CDT: 1525/^1526/-1594/2/2
!!!OCY: Italia
!!!AGN: Mass (Paraphrase)
!!!AST: renaissance, vocal
!!!ASW: Gregorian Mass
!!!PWK: Masses, Book 2
!!!RNB: Cadence finals: G,D,E,F,C
!!!YOR: Le Opere Complete, v. 4, p. 1
!!!YOO: Rome, Italy: Fratelli Scalera
!!!END: 1992//
!!!EED: John Miller
!!!YEC: Copyright 2000, John Miller
!!!YEN: United States of America
!!!YEM: Rights to all derivative electronic formats reserved.
!!!YEM: Refer to licensing agreement for further details.
!!!YEM: This file must be accompanied by the licensing agreement.
!!!YEM: A copy of the licensing agreement may be found at http://www.music-cog.ohio-state.edu/HumdrumDatabases/Palestrina/license.txt
!!!EMD: converted to Humdrum by Bret Aarden
